X: 1
T: Charlie McKerron's
M: 4/4
L: 1/8
R: reel
K: Ador
A2AB cBcd|e2ed eAAA|g2gf gedB|GABG cABG|
A2AB cBcd|e2ed eAAA|g2gf gedB|GABG A3z:|
a2ag aged|eAAA eAfA|g2gf gedB|GABG cABG|
^cAAA cAdA|^cAAA eaaf|g2gf gedB|GABG A3z|
a2ag aged|eAAA eAfA|g2gf gedB|GABG cABG|
A2AB cBcd|e2ed eAAA|g2gf gedB|GABG A3z||
